X: 20732
T: Johnny Doherty's
R: reel
M: 4/4
K: Dmajor
~F3E FGAB|Addc d2 (3efg|fded cA (3Bcd|1 cAGE EDDE:|2 cAGE EDDg||
|:fded cAAg|fdec dfag|fded cA (3Bcd|1 cAGE EDDg:|2 cAGE EDDE||

